images/build/build-types/01.svg

<svg width="129" height="89" viewBox="0 0 129 89" fill="none" xmlns="http://www.w3.org/2000/svg">
<path opacity="0.1" d="M69.646 88.4086C62.646 97.6486 52.8926 102.269 40.386 102.269C27.8793 102.269 18.0793 97.6486 10.986 88.4086C3.98595 79.0753 0.48595 66.7086 0.48595 51.3086C0.48595 35.9086 3.98595 23.5886 10.986 14.3486C18.0793 5.01526 27.8793 0.348587 40.386 0.348587C52.8926 0.348587 62.646 5.01526 69.646 14.3486C76.7393 23.5886 80.286 35.9086 80.286 51.3086C80.286 66.7086 76.7393 79.0753 69.646 88.4086ZM22.886 51.3086C22.886 70.7219 28.7193 80.4286 40.386 80.4286C52.0526 80.4286 57.886 70.7219 57.886 51.3086C57.886 31.8953 52.0526 22.1886 40.386 22.1886C28.7193 22.1886 22.886 31.8953 22.886 51.3086ZM108.755 2.30859H128.355V100.309H105.955V25.9686L88.5952 30.7286L83.1352 11.5486L108.755 2.30859Z" fill="#CB8734"/>
</svg>

<svg width="129" height="89" fill="none" xmlns="http://www.w3.org/2000/svg"><path opacity=".1" d="M69.646 88.409c-7 9.24-16.753 13.86-29.26 13.86-12.507 0-22.307-4.62-29.4-13.86-7-9.334-10.5-21.7-10.5-37.1 0-15.4 3.5-27.72 10.5-36.96 7.093-9.334 16.893-14 29.4-14 12.507 0 22.26 4.666 29.26 14 7.093 9.24 10.64 21.56 10.64 36.96 0 15.4-3.547 27.766-10.64 37.1zm-46.76-37.1c0 19.413 5.833 29.12 17.5 29.12s17.5-9.707 17.5-29.12c0-19.414-5.833-29.12-17.5-29.12s-17.5 9.706-17.5 29.12zm85.869-49h19.6v98h-22.4v-74.34l-17.36 4.76-5.46-19.18 25.62-9.24z" fill="#CB8734"/></svg>
